X: 218
T: Angeline The Baker
C:Stephen Foster
B: canberra pickers and fiddlers
B: songs
B: traditional songs
B: tunes
L:1/8
Q: 1/4=100
K:D
V:1 
dB|:"D"A2B2 d3 A|B2 d4 dB|A2 B2 dB A2 |"G"B6 dB|
  |"D"A2B2 d3 e|f2e2 d3 e |"D"f2e2 "G"d2B2|1 "D"A6 dB:|2 "D"A6 fg ||
  |:"D"a2f2 e2 de|f2e2 d2 fg|a2f2 e2d2|"G"B6 fg|
  |"D"a2f2 e2 de|f2e2 d2 de|"D"f2e2 "G"d2B2|1 "D"A6 fg:|2 "D"A6 dB||
W: Angeline the baker, lives on the village green
W: The way I always loved her, beats all you've ever seen
W: Angeline the baker, Angeline I know
W: Should have married Angeline, twenty years ago
W: 
W: Angeline the baker, age of 43
W: Fed her sugar candy, but she still won't marry me
W: Angeline the baker, Angeline I know
W: Should have married Angeline, just twenty years ago
W: 
W: Her father was a baker, his name was Uncle Sam
W: I never can forget her, no matter where I am
W: She said couldn't do hard work, because she is not stout
W: Baked the biscuits every day and poured the coffee out
W: Angeline the baker, age of 43
W: Fed her sugar candy, but she still won't marry me
W: Angeline the baker, Angeline I know
W: Should have married Angeline, just twenty years ago
W: 
W: I bought Angeline a brand new dress, neither black nor brown
W: It was the colour of a stormy skies, before the rain came down
W: Sixteen horses in my team, the leader he was blind
W: I dreamed that I was dying, I saw my Angeline
W: 
W: Angeline the baker, age of 43
W: Fed her sugar candy, but she still won't marry me
W: Angeline the baker, Angeline I know
W: Should have married Angeline, just twenty years ago
% abcbook-tune_id 63ae8f1cd6ad05957363f8a9
% abcbook-tune_composer_id 
% abcbook-link-0 https://www.youtube.com/watch?v=bZxdXLtDuIA
% abcbook-link-start-at-0 35
% abcbook-link-end-at-0 317
% abcbook-boost 0
% abcbook-difficulty 0
% abcbook-tags canberra pickers and fiddlers,max campbell,old time tunes,ralph cullen,steve ryan,© free
% abcbook-tablature 
% abcbook-transpose 
% abcbook-tuning ADAE
% abcbook-lastupdated 1677369808287
% abcbook-src-url https://tunebook.net/scrape/traditional%20songs.abc
% abcbook-soundfonts 
% abcbook-repeats 1


